X: 40032
T: Three Wheeled Wagon, The
R: jig
M: 6/8
K: Aminor
ez|e3 edB|ged BAG|AAA AGE|AAA ABd|
e2z edB|ged ega|c’ba bag|aaa aeg|
eee edB|ged BAG|AAA AGE|AAA ABd|
eee edB|ged ega|c’ba bag|aaa aga||
c'c'c' c'ba|bbb bzg|aaa age|cde cde|
c'c'c' c'ba|bbb bzc'|d'c'b c'ba|geg aze|
ec'c' c'ba|bbb bzg|aaa age|cde cde|
ec'e c'ba|bdb b2 c'|d'c'b c'ba|geg a3||

